X:3038
T:Christ Church Cathedral
R:Slow March
C:John Sheahan 1988
O:Ireland
Z:Paul Hardy's Session Tunebook 2022 (see www.paulhardy.net). Creative Commons cc by-nc-sa licenced.
M:2/2
L:1/8
Q:1/2=55
K:G
"G"BABc d2G2|"Em"G2A2 "D"F2G2|"C"EFG2 "G"D2G2|"C"c2BG "D7"B2A2|"G"BABc d2G2|"Em"G2A2 "D"F2G2|"C"EFG2 "G"D2G2|"D7"GAF2 "G"G4:|
|:"D"FEFG A2D2|D2A2 "G"ABG2|BABc d2G2|"C"c2BG "D7"B2A2|"G"BABc d2G2|"Em"G2A2 "D"F2G2|"C"EFG2 "G"D2G2|"D7"GAF2 "G"G4:|

